X:1
T:Title
%%score { ( 1 3 ) | ( 2 4 ) }
L:1/8
Q:1/4=100
M:6/8
K:Bb
V:1 treble nm="Grand Piano"
V:3 treble 
V:2 bass 
V:4 bass 
V:1
 [DF]3 [B,D]>[CE][DF] | [DB]6[K:bass] | [Ee]3 e>d[Ec] | [Dd]6 | [F,DF]2 [DA] [DB][Ec][Fd] | %5
w: R.~Menthal * * *|||||
 e>d[Gc] [Fd]2 [Fc] | f>e[Fd] c2 d | [Ge]2 [EGc] [DFB]2 [CFA] | e>d[Gc] B2 B | d>c[=EB] [Fc]3 | %10
w: |||||
 [B,FB]2 [B,EG] [B,DF]2 [G,DF] | [F,D]->[F,DB]c d3 | d2 e f2 d |[M:15/16] c->cd[Ge]3/2- [Ge]3 | %14
w: ||||
[M:3/4] d>c .B2 z/ C/F[Q:1/4=98][Q:1/4=97][Q:1/4=95][Q:1/4=94] | %15
w: |
[M:15/16] G->GA[DB]3/2- [DB]3[Q:1/4=92][Q:1/4=91][Q:1/4=89][Q:1/4=88][Q:1/4=86][Q:1/4=84][Q:1/4=83][Q:1/4=81][Q:1/4=80][Q:1/4=78][Q:1/4=77] |] %16
w: |
V:2
 [B,,F,]3 [B,,F,]2 [B,,F,] | [B,,F,]3 z3 | [B,,G,]3 [B,,G,]2 [B,,^F,] | [B,,F,]6 | %4
 z z/ G/[B,,F,] [B,,F,]2 [B,,B,] | [E,B,]2 [E,B,] [F,B,]2 [E,A,] | %6
 [D,B,]>[C,A,][B,,B,][K:treble] [F,A,F]2 [B,F] | z z/ d/[K:bass]E, F,2 F, | %8
 [C,C]>[D,=B,][E,C] [F,DF]2 [F,DF] | z3 A,3 | z z/ A/E, z z/ A,/B,, | %11
 B,,2[K:treble] [F,A,F] [B,F]3 | [B,F]2 [B,CF] [B,DF]2 [B,F] | %13
[M:15/16] [F,A,F]->[F,A,F][B,F][K:bass][E,B,]3/2- [E,B,]3 | %14
[M:3/4] [F,F]->[F,EF] [F,DF] [F,D]2 [F,B,D] | %15
[M:15/16] [F,B,E]->[F,B,E][F,CE][B,,B,]3/2- [B,,B,]3 |] %16
V:3
 x6 | z3[K:bass] [B,,_A,]3 | z3 .E3 | x6 | x6 | .G3 z3 | .F3 z3 | x6 | .G3 z3 | x6 | x6 | .F3 z3 | %12
 x6 |[M:15/16] x15/2 |[M:3/4] z2 z .F3 |[M:15/16] x15/2 |] %16
V:4
 x6 | x6 | x6 | x6 | .B,,3 z3 | x6 | x3[K:treble] x3 | .[E,B,]3[K:bass] z3 | x6 | %9
 [G,B,=E]2 [C,C] F,2 E, | .D,3 .B,,3 | x2[K:treble] x4 | x6 |[M:15/16] x3[K:bass] x9/2 | %14
[M:3/4] B,2 z2 z2 |[M:15/16] x15/2 |] %16

